Facilitet_punkt_5800_Piktogrammer/Cirkel/SVG/TURISTINFORMATION.svg

<svg xmlns="http://www.w3.org/2000/svg" width="5.5mm" height="5.5mm" viewBox="0 0 15.591 15.591">
  <rect width="15.591" height="15.591" rx="7.795" fill="#031E3A"/>
  <g>
    <path d="M9.581,12.509H8.8V8.731a.41.41,0,0,0,.01-.048.386.386,0,0,0-.01-.049V8.58H8.784a.369.369,0,0,0-.354-.272H6.3a.375.375,0,0,0,0,.75h.5v3.451H6.01a.375.375,0,1,0,0,.75H9.581a.375.375,0,0,0,0-.75Z" fill="#fff"/>
    <path d="M8.79,6.5a1,1,0,1,0-.995,1A.994.994,0,0,0,8.79,6.5Z" fill="#fff"/>
    <path d="M13.668,5.27,8.052,1.9a.493.493,0,0,0-.513,0L1.922,5.27a.5.5,0,0,0,.257.928.492.492,0,0,0,.257-.071L7.8,2.915l5.36,3.212a.5.5,0,0,0,.513-.857Z" fill="#fff"/>
  </g>
</svg>

<?xml version="1.0" encoding="UTF-8"?>
<svg xmlns="http://www.w3.org/2000/svg" viewBox="0 0 15.59 15.59">
  <defs>
    <style>
      .cls-1 {
        fill: #071f39;
      }

      .cls-1, .cls-2 {
        stroke-width: 0px;
      }

      .cls-2 {
        fill: #fff;
      }
    </style>
  </defs>
  <g id="Cirkel">
    <rect class="cls-1" x="0" y="0" width="15.59" height="15.59" rx="7.8" ry="7.8"/>
  </g>
  <g id="ICONS">
    <g>
      <path class="cls-2" d="M9.58,12.51h-.79v-3.78s0-.03,0-.05,0-.03,0-.05v-.05h-.01c-.05-.16-.18-.27-.35-.27h-2.13c-.21,0-.38.17-.38.38s.17.38.38.38h.5v3.45h-.79c-.21,0-.38.17-.38.38s.17.38.38.38h3.57c.21,0,.38-.17.38-.38s-.17-.38-.38-.38Z"/>
      <path class="cls-2" d="M8.79,6.5c0-.55-.45-.99-.99-.99s-1,.45-1,.99.45,1,1,1,.99-.45.99-1Z"/>
      <path class="cls-2" d="M13.67,5.27l-5.62-3.37c-.16-.1-.36-.1-.51,0L1.92,5.27c-.24.14-.31.45-.17.69.09.16.26.24.43.24.09,0,.18-.02.26-.07l5.36-3.21,5.36,3.21c.24.14.54.06.69-.17s.07-.54-.17-.69Z"/>
    </g>
  </g>
</svg>
